!!!OTL: DIE VOEGLEIN IN DEM WALDE
!!!ARE: Europa, Mitteleuropa, Deutschland, Uckermark, Prenzlau
!!!SCT: E1788
!!!YEM: Copyright 1995, estate of Helmut Schaffrath.
**kern
*ICvox
*Ivox
*M4/4
*k[]
*C:
{4E
=1
4G
4E
4c
4A
=2
4.G
8E
4G}
{4c
=3
4A
4A
8A
8B
8c
8A
=4
4.G
8E
4G}
{4c
=5
4.C
8D
4E
4F
=6
4G
4G
4G}
{4c
=7
8.A
16F
8F
8F
4F
4d
=8
8.B
16G
8G
8G
4G}
{4f
=9
4e
8f
8d
4c
4d
=10
4e
4e
8e
8d
8c}
{8B
=11
8.A
16F
8F
8F
4F
4d
=12
8.B
16G
8G
8G
4G}
{4f
=13
4e
8f
8d
4c
4d
=14
2c
4r}
==
!!!AGN: Scherz - Lied; Handwerksburschen -, Abschieds -, Wander - Lied
!!!ONB: ESAC (Essen Associative Code) Database: ERK3
!!!AMT: simple quadruple
!!!AIN: vox
!!!EED: Helmut Schaffrath
!!!EEV: 1.0
*-
